build/documents/RotateRightSolid.svg

<svg xmlns="http://www.w3.org/2000/svg" fill="none" viewBox="0 0 24 24" focusable="false"><path d="M0 0H24V24H0z" transform="matrix(1 0 0 -1 0 24)"/><path fill="#74767B" fill-rule="evenodd" d="M19.1312 10.5241C19.385 10.7779 19.7966 10.7779 20.0504 10.5241L21.8161 8.75835C22.07 8.50451 22.07 8.09295 21.8161 7.83911C21.5623 7.58527 21.1507 7.58527 20.8969 7.83911L20.2408 8.49525C20.238 4.90755 17.3288 2 13.7405 2C13.3815 2 13.0905 2.29101 13.0905 2.65C13.0905 3.00898 13.3815 3.3 13.7405 3.3C16.6108 3.3 18.938 5.62549 18.9408 8.49518L18.2847 7.83911C18.0308 7.58527 17.6193 7.58527 17.3654 7.83911C17.1116 8.09295 17.1116 8.50451 17.3654 8.75835L19.1312 10.5241ZM6.00269 5.69704C4.34583 5.69704 3.00269 7.04018 3.00269 8.69704L3.00269 17.9972C3.00269 19.6541 4.34583 20.9972 6.00269 20.9972L12.7526 20.9972C14.4094 20.9972 15.7526 19.6541 15.7526 17.9972L15.7526 8.69704C15.7526 7.04018 14.4094 5.69704 12.7526 5.69704L6.00269 5.69704Z"/></svg>

<svg xmlns="http://www.w3.org/2000/svg" fill="none" viewBox="0 0 24 24" focusable="false"><path fill="#74767B" fill-rule="evenodd" d="M19.13 10.52c.25.25.66.25.92 0l1.76-1.77a.64.64 0 0 0 0-.92.66.66 0 0 0-.92 0l-.65.66A6.504 6.504 0 0 0 13.74 2c-.36 0-.65.29-.65.64 0 .36.29.65.65.65 2.87 0 5.19 2.33 5.2 5.2l-.66-.66a.66.66 0 0 0-.92 0c-.25.26-.25.67 0 .92zM3 8.69c0-1.65 1.34-3 3-3h6.75c1.65 0 3 1.35 3 3v9.3c0 1.66-1.35 3-3 3H6c-1.66 0-3-1.34-3-3z"/></svg>
